X:4
T:Old Joe Clark
C:Traditional Appalachian fiddle tune, PD
M:4/4
L:1/8
Q:1/4=132
K:Amix
A2 A2 A2 c2 | B2 G2 E2 G2 | A4 A2 G2 | E8 |
A2 A2 A2 c2 | B2 G2 E4 | G4 E2 D2 | A8 :|
|: e2 e2 e2 f2 | e2 d2 B4 | e2 e2 e2 f2 | e2 d2 B2 G2 |
e2 e2 e2 f2 | e2 d2 B2 A2 | G4 E2 D2 | A8 :|
